icons/op-warning-24.svg

<svg width="24" height="24" viewBox="0 0 24 24" fill="none" xmlns="http://www.w3.org/2000/svg">
<path d="M19.7684 17.9081L17.441 13.332C16.8749 12.2206 15.9314 10.4229 15.3652 9.31154L13.0379 4.8335C12.4718 3.72217 11.5282 3.72217 10.9621 4.8335L8.63476 9.31154C8.06865 10.4229 7.12512 12.2533 6.55901 13.3647L4.23165 17.9081C3.66553 19.0194 4.16875 20 5.39533 20H18.6047C19.8313 20 20.3345 19.0194 19.7684 17.9081ZM13.1008 17.712H10.8992V15.4239H13.1008V17.712ZM13.1008 14.2472H10.8992V9.67109H13.1008V14.2472Z" fill="black"/>
</svg>

<svg xmlns="http://www.w3.org/2000/svg" width="24" height="24" viewBox="0 0 24 24"><path d="m19.768 17.908-2.327-4.576c-.566-1.111-1.51-2.909-2.076-4.02l-2.327-4.479c-.566-1.111-1.51-1.111-2.076 0L8.635 9.312c-.566 1.111-1.51 2.941-2.076 4.053l-2.327 4.543C3.666 19.019 4.169 20 5.395 20h13.21c1.226 0 1.729-.981 1.163-2.092Zm-6.667-.196h-2.202v-2.288h2.202v2.288Zm0-3.465h-2.202V9.671h2.202v4.576Z"/></svg>
